X: 149
T:Persian Dance
M:2/4
L:1/8
C:Neil Gow
K:G
d/2c/2|"G"BB/2c/2 "D"AA/2B/2|"G"GG GA/2B/2|"Am"c/2B/2c/2d/2 e/2d/2c/2B/2
|"D"AA Ad/2c/2|"G"BB/2c/2
"D"AA/2B/2|!
"Em"GG GA/2B/2|"Am7"c/2B/2A/2G/2 "D"F/2G/2A/2F/2|"G"GG G:||: B/2e/2|"G"d
d dg|"G"dd dg|!
"G"dd e/2d/2c/2B/2|"D"A/2G/2A/2B/2 AB/2c/2|"G"dd dg|"G"dd dg|"G"dB "D7"d
/2c/2B/2A/2|"G"GB G:||
